X:1420
T: Stack of Oats
S: "Passing Time" (Jim & Mary Coogan & friends)
N: "We learned this from the playing of our cousin Tommy
N: Caulfield"
L: 1/8
M: 4/4
Q: 325
R: hornpipe
K: G
DG | B2 BA B2 G2 | D4-D2 GA | B2 AB c2 A2 | E8 |
AGFG A2 D2 | GFGA B2 e2 | dBcA E2 F2 | G4-G2 :|
Bc | d2 d2 g2 g2 | dedB G2 Bc | d2 B2 g2 d2 | f4-f2 AB |
cBAB c2 d2 | f2 f2 f4 | e2 ef ed^ce | d4-d2 Bc |
d2 d2 g2 g2 | dedB G2 Bc | d2 B2 g2 d2 | b8 |
abaf d2 a2 | gagd B2 e2 | dBcA E2 F2 | G8 |]
